public/new/svg24.svg

<svg fill="none" height="28" viewBox="0 0 28 28" width="28" xmlns="http://www.w3.org/2000/svg"><path d="m2.50988 19.4804c-.28131.2813-.43934.6628-.43934 1.0606s.15803.7794.43934 1.0607l3.88909 3.8891c.2813.2813.66283.4393 1.06066.4393.39782 0 .77935-.158 1.06066-.4393l16.97061-16.9706c.2813-.28131.4393-.66284.4393-1.06066 0-.39783-.158-.77936-.4393-1.06066l-3.8891-3.88909c-.2813-.28131-.6629-.43934-1.0607-.43934s-.7793.15803-1.0607.43934zm.70711.7071 2.12132-2.1214 1.76776 1.7678.70711-.7071-1.76777-1.7678 2.2981-2.2981 2.75769 2.7578.7071-.7072-2.75768-2.7577 2.29808-2.2981 1.7678 1.7678.7071-.7071-1.7678-1.7678 2.2981-2.29807 2.7577 2.75767.7071-.7071-2.7577-2.75768 2.2981-2.2981 1.7678 1.76777.7071-.70711-1.7678-1.76777 2.1214-2.12132c.0937-.09376.2209-.14644.3535-.14644s.2598.05268.3536.14644l3.889 3.88909c.0938.09377.1465.22095.1465.35356 0 .1326-.0527.25978-.1465.35355l-16.97052 16.97061c-.09377.0937-.22094.1464-.35355.1464s-.25979-.0527-.35356-.1464l-3.88908-3.8891c-.09377-.0938-.14645-.221-.14645-.3536s.05268-.2598.14645-.3535z" fill="#77787e"/></svg>

<svg width="28" height="28" viewBox="0 0 28 28" fill="none" xmlns="http://www.w3.org/2000/svg">
<path d="M2.50988 19.4804C2.22857 19.7617 2.07054 20.1432 2.07054 20.541C2.07054 20.9388 2.22857 21.3204 2.50988 21.6017L6.39897 25.4908C6.68027 25.7721 7.0618 25.9301 7.45963 25.9301C7.85745 25.9301 8.23898 25.7721 8.52029 25.4908L25.4909 8.5202C25.7722 8.23889 25.9302 7.85736 25.9302 7.45954C25.9302 7.06171 25.7722 6.68018 25.4909 6.39888L21.6018 2.50979C21.3205 2.22848 20.9389 2.07045 20.5411 2.07045C20.1433 2.07045 19.7618 2.22848 19.4804 2.50979L2.50988 19.4804ZM3.21699 20.1875L5.33831 18.0661L7.10607 19.8339L7.81318 19.1268L6.04541 17.359L8.34351 15.0609L11.1012 17.8187L11.8083 17.1115L9.05062 14.3538L11.3487 12.0557L13.1165 13.8235L13.8236 13.1164L12.0558 11.3486L14.3539 9.05053L17.1116 11.8082L17.8187 11.1011L15.061 8.34342L17.3591 6.04532L19.1269 7.81309L19.834 7.10598L18.0662 5.33821L20.1876 3.21689C20.2813 3.12313 20.4085 3.07045 20.5411 3.07045C20.6737 3.07045 20.8009 3.12313 20.8947 3.21689L24.7837 7.10598C24.8775 7.19975 24.9302 7.32693 24.9302 7.45954C24.9302 7.59214 24.8775 7.71932 24.7837 7.81309L7.81318 24.7837C7.71941 24.8774 7.59224 24.9301 7.45963 24.9301C7.32702 24.9301 7.19984 24.8774 7.10607 24.7837L3.21699 20.8946C3.12322 20.8008 3.07054 20.6736 3.07054 20.541C3.07054 20.4084 3.12322 20.2812 3.21699 20.1875Z" fill="#77787E"/>
</svg>
